images/node.svg

<svg width="80" height="80" viewBox="0 0 80 80" fill="none" xmlns="http://www.w3.org/2000/svg">
<path d="M39.9856 75.9373C39.03 75.9373 38.0602 75.6807 37.2187 75.1957L28.4189 69.9901C27.1069 69.2484 27.7486 68.9918 28.1766 68.849C29.9306 68.2357 30.2872 68.1076 32.1555 67.0378C32.3553 66.9239 32.612 66.9664 32.8116 67.095L39.5719 71.1025C39.8144 71.245 40.1564 71.245 40.3847 71.1025L66.7272 55.8987C66.9698 55.7561 67.1264 55.4709 67.1264 55.1857V24.7786C67.1264 24.479 66.9698 24.2081 66.7131 24.0514L40.3848 8.86184C40.1425 8.71918 39.8145 8.71918 39.572 8.86184L13.2581 24.0654C13.0012 24.2081 12.8445 24.4932 12.8445 24.7928V55.1857C12.8445 55.4709 13.0012 55.7561 13.2581 55.8847L20.475 60.0492C24.3972 62.0029 26.7931 59.7068 26.7931 57.3823V27.3742C26.7931 26.9464 27.1353 26.6184 27.5634 26.6184H30.9008C31.3144 26.6184 31.6708 26.9464 31.6708 27.3742V57.3965C31.6708 62.6164 28.8183 65.6115 23.8695 65.6115C22.3433 65.6115 21.1453 65.6115 17.808 63.9571L10.905 59.9779C9.19343 58.9937 8.13812 57.1539 8.13812 55.1717V24.7786C8.13812 22.8104 9.19343 20.9564 10.905 19.9723L37.2187 4.76856C38.8873 3.82731 41.0981 3.82731 42.7525 4.76856L69.0953 19.9864C70.8067 20.9704 71.862 22.8103 71.862 24.7928V55.1857C71.862 57.1539 70.8067 58.9937 69.0953 59.9922L42.7525 75.1957C41.9109 75.6807 40.9552 75.9373 39.9856 75.9373ZM61.2509 45.9725C61.2509 40.2817 57.4 38.77 49.3134 37.7004C41.1266 36.6164 40.2995 36.0601 40.2995 34.149C40.2995 32.5661 40.9984 30.4551 47.0598 30.4551C52.4655 30.4551 54.4622 31.6247 55.2892 35.2759C55.3606 35.6181 55.6747 35.8748 56.0308 35.8748H59.4542C59.6678 35.8748 59.8675 35.7893 60.0103 35.6323C60.1531 35.4756 60.2242 35.2615 60.2095 35.0475C59.6822 28.7581 55.5031 25.8342 47.0598 25.8342C39.5437 25.8342 35.0655 29.0004 35.0655 34.3203C35.0655 40.0822 39.5294 41.6798 46.7317 42.3925C55.3606 43.2342 56.0308 44.5036 56.0308 46.2007C56.0308 49.139 53.6636 50.3937 48.1155 50.3937C41.1412 50.3937 39.615 48.6395 39.1016 45.174C39.0445 44.8032 38.7306 44.5323 38.3458 44.5323H34.9369C34.5091 44.5323 34.1812 44.8746 34.1812 45.2879C34.1812 49.7239 36.5916 55.0151 48.1298 55.0151C56.4587 55.0007 61.2509 51.7056 61.2509 45.9725Z" fill="#539E43"/>
</svg>

<svg width="80" height="80" viewBox="0 0 80 80" fill="none" xmlns="http://www.w3.org/2000/svg"><path d="M39.986 75.937a5.586 5.586 0 01-2.767-.741l-8.8-5.206c-1.312-.742-.67-.998-.242-1.141 1.754-.613 2.11-.741 3.979-1.811.2-.114.456-.072.656.057l6.76 4.008a.826.826 0 00.813 0l26.342-15.204a.844.844 0 00.4-.713V24.779c0-.3-.157-.57-.414-.728L40.385 8.861a.825.825 0 00-.813 0L13.258 24.066a.832.832 0 00-.413.728v30.393c0 .285.156.57.413.699l7.217 4.164c3.922 1.954 6.318-.342 6.318-2.667V27.374c0-.428.342-.756.77-.756h3.338c.413 0 .77.328.77.756v30.023c0 5.22-2.853 8.215-7.802 8.215-1.526 0-2.724 0-6.061-1.655l-6.903-3.98a5.546 5.546 0 01-2.767-4.805V24.779a5.563 5.563 0 012.767-4.807L37.219 4.77c1.668-.942 3.88-.942 5.533 0l26.343 15.217a5.546 5.546 0 012.767 4.807v30.393a5.581 5.581 0 01-2.767 4.806L42.752 75.196a5.547 5.547 0 01-2.766.741zM61.25 45.972c0-5.69-3.851-7.202-11.938-8.272-8.186-1.084-9.014-1.64-9.014-3.551 0-1.583.7-3.694 6.76-3.694 5.407 0 7.403 1.17 8.23 4.82a.764.764 0 00.742.6h3.423a.745.745 0 00.556-.243.79.79 0 00.2-.584c-.528-6.29-4.707-9.214-13.15-9.214-7.516 0-11.995 3.166-11.995 8.486 0 5.762 4.464 7.36 11.667 8.072 8.629.842 9.299 2.112 9.299 3.809 0 2.938-2.367 4.193-7.916 4.193-6.974 0-8.5-1.755-9.013-5.22a.755.755 0 00-.756-.642h-3.41a.752.752 0 00-.755.756c0 4.436 2.41 9.727 13.949 9.727 8.329-.014 13.12-3.31 13.12-9.043z" fill="#539E43"/></svg>
